X: 1
T: Griffenfeldt
T: Reinlender av Ånon Egeland 
C: Ånon Egeland 
R: schottis
S: as played by Olov Johansson
Z: 2005 John Chambers from MS by Elizabeth Weiss
M: 2/4
L: 1/16
K: A
|: ABcd ee=ge | feec A2Ac | B2=G2 G2Bd | c2A2 A3E |
| ABcd ee=ge | feec A2Ac | B2=G2 G2Bd | c2A2 A4 :|
|: a2a2 a2ba | g2e2 e3f | edcB cdfa | g2e2 e4 |
| a2a2 a2ba | g2e2 e3f | edcB c2A=G | =GAA2 A4 :|

